do
  d2
    $ limit
    $ while "<t f f t f t f>" (|* speed "1.5")
    $ while "<t f f t f>" (|* speed "-1")
    $ while "<t f f f t f f f f>" (superimpose ((|* speed 0.5) . (|+ cut 1)))
    $ while "<t f f>" (superimpose ((|* speed 0.5) . (|+ cut 1)))
    $ struct (slow 4 $ "1(3,8,<0 5 1212>)" )
    $ loopAt 12 
    $ s "br2049" 
    # n "[7 8 9]*5" 
    # cut 1 
    # begin "[0.55 0.75 0.35]*4"
    # crush 7
    # shape 0.5

    hush